X: 17410
T: High, The
R: reel
M: 4/4
K: Amixolydian
|:"A"a2fa ecA2|(3cBA eA fAeA|"A"a2fa ecA2|"G"Bcdc BGG2|
"A"a2fa ecA2|"A"cdef "G"g2fg|"D"afge fdec|"G"Bcdc BGG2:|
|:"A"(3cBA eA fAeA|cAaf ecA2|"A"(3cBA eA fAeA|"G"Bcdc BGG2|
"A"(3cBA eA fAeA|cdef "G"g2fg|"D"afge fdec|"G"Bcdc BGG2:|"A"A8||

